dist/images/about/how-work-1.svg

<svg width="48" height="48" viewBox="0 0 48 48" fill="none" xmlns="http://www.w3.org/2000/svg">
<path d="M48 36.6562L45.1875 39.4688H2.8125L0 36.6562L5.31555 20.6437C5.48438 20.0812 6.04688 19.6875 6.63757 19.6875H41.3624C41.9531 19.6875 42.5156 20.0812 42.6844 20.6437L48 36.6562Z" fill="#38C470"/>
<path d="M48 36.6562L45.1875 39.4688H24V19.6875H41.3624C41.9531 19.6875 42.5156 20.0812 42.6844 20.6437L48 36.6562Z" fill="url(#paint0_linear_747_296281)"/>
<path d="M36.6562 29.625C36.6562 30.4124 36.0377 31.0312 35.25 31.0312H12.75C11.9623 31.0312 11.3438 30.4124 11.3438 29.625C11.3438 28.8373 11.9623 28.2188 12.75 28.2188H35.25C36.0377 28.2188 36.6562 28.8373 36.6562 29.625Z" fill="#4D5A65"/>
<path d="M24 0C17.0251 0 11.3438 5.6814 11.3438 12.6562C11.3438 19.6311 17.0251 25.3125 24 25.3125C30.9749 25.3125 36.6562 19.6311 36.6562 12.6562C36.6562 5.6814 30.9749 0 24 0Z" fill="#FFDA2D"/>
<path d="M36.6562 12.6562C36.6562 19.6311 30.9749 25.3125 24 25.3125V0C30.9749 0 36.6562 5.6814 36.6562 12.6562Z" fill="#FDBF00"/>
<path d="M24 2.8125C18.572 2.8125 14.1562 7.22827 14.1562 12.6562C14.1562 18.0842 18.572 22.5 24 22.5C29.428 22.5 33.8438 18.0842 33.8438 12.6562C33.8438 7.22827 29.428 2.8125 24 2.8125Z" fill="#E89040"/>
<path d="M33.8438 12.6562C33.8438 18.0842 29.428 22.5 24 22.5V2.8125C29.428 2.8125 33.8438 7.22827 33.8438 12.6562Z" fill="#E89040"/>
<path d="M28.2188 15.4688C28.2188 17.2969 27.0377 18.8438 25.4062 19.4344V23.9062C25.4062 24.694 24.7877 25.3125 24 25.3125C23.2123 25.3125 22.5938 24.694 22.5938 23.9062V19.4344C20.9623 18.8438 19.7812 17.2969 19.7812 15.4688C19.7812 14.681 20.3998 14.0625 21.1875 14.0625C21.9752 14.0625 22.5938 14.681 22.5938 15.4688C22.5938 16.2565 23.2123 16.875 24 16.875C24.7877 16.875 25.4062 16.2565 25.4062 15.4688C25.4062 14.681 24.7877 14.0625 24 14.0625C21.6654 14.0625 19.7812 12.1783 19.7812 9.84375C19.7812 8.01562 20.9623 6.46875 22.5938 5.87805V1.40625C22.5938 0.61853 23.2123 0 24 0C24.7877 0 25.4062 0.61853 25.4062 1.40625V5.87805C27.0377 6.46875 28.2188 8.01562 28.2188 9.84375C28.2188 10.6315 27.6002 11.25 26.8125 11.25C26.0248 11.25 25.4062 10.6315 25.4062 9.84375C25.4062 9.05603 24.7877 8.4375 24 8.4375C23.2123 8.4375 22.5938 9.05603 22.5938 9.84375C22.5938 10.6315 23.2123 11.25 24 11.25C26.3346 11.25 28.2188 13.1342 28.2188 15.4688Z" fill="url(#paint1_linear_747_296281)"/>
<path d="M24 8.4375V0C24.7877 0 25.4062 0.61853 25.4062 1.40625V5.87805C27.0377 6.46875 28.2188 8.01562 28.2188 9.84375C28.2188 10.6315 27.6002 11.25 26.8125 11.25C26.0248 11.25 25.4062 10.6315 25.4062 9.84375C25.4062 9.05603 24.7877 8.4375 24 8.4375Z" fill="#E1AB1F"/>
<path d="M28.2188 15.4688C28.2188 17.2969 27.0377 18.8438 25.4062 19.4344V23.9062C25.4062 24.694 24.7877 25.3125 24 25.3125V16.875C24.7877 16.875 25.4062 16.2565 25.4062 15.4688C25.4062 14.681 24.7877 14.0625 24 14.0625V11.25C26.3346 11.25 28.2188 13.1342 28.2188 15.4688Z" fill="#FDBF00"/>
<path d="M35.25 31.0312H24V28.2188H35.25C36.0377 28.2188 36.6562 28.8373 36.6562 29.625C36.6562 30.4124 36.0377 31.0312 35.25 31.0312Z" fill="#112E49"/>
<path d="M48 36.6562V46.5938C48 47.3811 47.3815 48 46.5938 48H1.40625C0.61853 48 0 47.3811 0 46.5938V36.6562H48Z" fill="url(#paint2_linear_747_296281)"/>
<path d="M48 36.6562V46.5938C48 47.3811 47.3815 48 46.5938 48H24V36.6562H48Z" fill="#14A84F"/>
<defs>
<linearGradient id="paint0_linear_747_296281" x1="36" y1="19.6875" x2="36" y2="39.4688" gradientUnits="userSpaceOnUse">
<stop stop-color="#43D26B"/>
<stop offset="1" stop-color="#1EB463"/>
</linearGradient>
<linearGradient id="paint1_linear_747_296281" x1="24" y1="0" x2="24" y2="25.3125" gradientUnits="userSpaceOnUse">
<stop stop-color="#F5C038"/>
<stop offset="1" stop-color="#E7B229"/>
</linearGradient>
<linearGradient id="paint2_linear_747_296281" x1="24" y1="36.6562" x2="24" y2="48" gradientUnits="userSpaceOnUse">
<stop stop-color="#43D26B"/>
<stop offset="1" stop-color="#1EB463"/>
</linearGradient>
</defs>
</svg>

<svg width="48" height="48" fill="none" xmlns="http://www.w3.org/2000/svg"><path d="M48 36.656l-2.813 2.813H2.813L0 36.656l5.316-16.012c.168-.563.73-.956 1.322-.956h34.724c.591 0 1.154.393 1.322.956L48 36.656z" fill="#38C470"/><path d="M48 36.656l-2.813 2.813H24V19.687h17.362c.591 0 1.154.394 1.322.957L48 36.656z" fill="url(#paint0_linear_747_296281)"/><path d="M36.656 29.625c0 .787-.618 1.406-1.406 1.406h-22.5a1.392 1.392 0 01-1.406-1.406c0-.788.618-1.406 1.406-1.406h22.5c.788 0 1.406.618 1.406 1.406z" fill="#4D5A65"/><path d="M24 0c-6.975 0-12.656 5.681-12.656 12.656 0 6.975 5.681 12.656 12.656 12.656 6.975 0 12.656-5.68 12.656-12.656C36.656 5.681 30.975 0 24 0z" fill="#FFDA2D"/><path d="M36.656 12.656c0 6.975-5.681 12.656-12.656 12.656V0c6.975 0 12.656 5.681 12.656 12.656z" fill="#FDBF00"/><path d="M24 2.813c-5.428 0-9.844 4.415-9.844 9.843S18.572 22.5 24 22.5c5.428 0 9.844-4.416 9.844-9.844 0-5.428-4.416-9.844-9.844-9.844z" fill="#E89040"/><path d="M33.844 12.656c0 5.428-4.416 9.844-9.844 9.844V2.812c5.428 0 9.844 4.416 9.844 9.844z" fill="#E89040"/><path d="M28.219 15.469c0 1.828-1.181 3.375-2.813 3.965v4.472c0 .788-.618 1.407-1.406 1.407a1.392 1.392 0 01-1.406-1.407v-4.472c-1.632-.59-2.813-2.137-2.813-3.965 0-.788.619-1.406 1.407-1.406.787 0 1.406.618 1.406 1.406 0 .787.618 1.406 1.406 1.406.788 0 1.406-.619 1.406-1.406 0-.788-.618-1.406-1.406-1.406a4.213 4.213 0 01-4.219-4.22c0-1.827 1.181-3.374 2.813-3.965V1.406C22.594.62 23.212 0 24 0c.788 0 1.406.619 1.406 1.406v4.472c1.632.59 2.813 2.138 2.813 3.966 0 .788-.619 1.406-1.407 1.406a1.392 1.392 0 01-1.406-1.406c0-.788-.618-1.406-1.406-1.406-.788 0-1.406.618-1.406 1.406 0 .788.618 1.406 1.406 1.406a4.213 4.213 0 014.219 4.219z" fill="url(#paint1_linear_747_296281)"/><path d="M24 8.438V0c.788 0 1.406.619 1.406 1.406v4.472c1.632.59 2.813 2.138 2.813 3.966 0 .788-.619 1.406-1.407 1.406a1.392 1.392 0 01-1.406-1.406c0-.788-.618-1.406-1.406-1.406z" fill="#E1AB1F"/><path d="M28.219 15.469c0 1.828-1.181 3.375-2.813 3.965v4.472c0 .788-.618 1.407-1.406 1.407v-8.438c.788 0 1.406-.619 1.406-1.406 0-.788-.618-1.406-1.406-1.406V11.25a4.213 4.213 0 014.219 4.219z" fill="#FDBF00"/><path d="M35.25 31.031H24V28.22h11.25c.788 0 1.406.618 1.406 1.406 0 .787-.618 1.406-1.406 1.406z" fill="#112E49"/><path d="M48 36.656v9.938C48 47.38 47.382 48 46.594 48H1.406A1.393 1.393 0 010 46.594v-9.938h48z" fill="url(#paint2_linear_747_296281)"/><path d="M48 36.656v9.938C48 47.38 47.382 48 46.594 48H24V36.656h24z" fill="#14A84F"/><defs><linearGradient id="paint0_linear_747_296281" x1="36" y1="19.688" x2="36" y2="39.469" gradientUnits="userSpaceOnUse"><stop stop-color="#43D26B"/><stop offset="1" stop-color="#1EB463"/></linearGradient><linearGradient id="paint1_linear_747_296281" x1="24" y1="0" x2="24" y2="25.313" gradientUnits="userSpaceOnUse"><stop stop-color="#F5C038"/><stop offset="1" stop-color="#E7B229"/></linearGradient><linearGradient id="paint2_linear_747_296281" x1="24" y1="36.656" x2="24" y2="48" gradientUnits="userSpaceOnUse"><stop stop-color="#43D26B"/><stop offset="1" stop-color="#1EB463"/></linearGradient></defs></svg>
